packages/core/src/svgs/1art.svg

<svg width="24" height="24" viewBox="0 0 24 24" fill="none" xmlns="http://www.w3.org/2000/svg">
<g clip-path="url(#clip0_31_5473)">
<path d="M0 0H24V24H0V0Z" fill="url(#paint0_linear_31_5473)"/>
<path d="M12.2702 5.76866C13.0545 5.27152 14.1216 5.77295 14.143 6.63438V17.3401C14.143 17.9401 13.5173 18.4287 12.8573 18.4287C12.2059 18.4287 11.5845 17.9529 11.5716 17.3572V9.11152C11.5716 9.11152 9.82732 10.1958 8.98732 10.6287C8.88875 10.6801 8.78161 10.7144 8.65732 10.7187C8.51161 10.7187 8.35732 10.6929 8.20732 10.6372C7.71446 10.4487 7.26446 9.97295 7.28589 9.42866C7.29875 9.11152 7.44018 8.81152 7.75303 8.60581L7.77018 8.59295L12.2702 5.76438V5.76866Z" fill="white"/>
</g>
<defs>
<linearGradient id="paint0_linear_31_5473" x1="21.2143" y1="5.35714" x2="1.92857" y2="17.7857" gradientUnits="userSpaceOnUse">
<stop stop-color="#836DF7"/>
<stop offset="0.28" stop-color="#2E8ACA"/>
<stop offset="0.5" stop-color="#4978D6"/>
<stop offset="1" stop-color="#A672DC"/>
</linearGradient>
<clipPath id="clip0_31_5473">
<rect width="24" height="24" fill="white"/>
</clipPath>
</defs>
</svg>

<svg xmlns="http://www.w3.org/2000/svg" width="24" height="24" fill="none" viewBox="0 0 24 24"><g clip-path="url(#a)"><path fill="url(#b)" d="M0 0h24v24H0z"/><path fill="#fff" d="M12.27 5.769c.785-.497 1.852.004 1.873.865V17.34c0 .6-.626 1.089-1.286 1.089-.651 0-1.272-.476-1.285-1.072V9.112s-1.745 1.084-2.585 1.517a.76.76 0 0 1-.33.09 1.3 1.3 0 0 1-.45-.082c-.493-.188-.943-.664-.921-1.208.013-.317.154-.617.467-.823l.017-.013 4.5-2.829z"/></g><defs><linearGradient id="b" x1="21.214" x2="1.929" y1="5.357" y2="17.786" gradientUnits="userSpaceOnUse"><stop stop-color="#836DF7"/><stop offset=".28" stop-color="#2E8ACA"/><stop offset=".5" stop-color="#4978D6"/><stop offset="1" stop-color="#A672DC"/></linearGradient><clipPath id="a"><path fill="#fff" d="M0 0h24v24H0z"/></clipPath></defs></svg>
